X:1
T:Komm, lieber Mai
T:Komm, lieber Mai
T:(Come sweet may) k 596
T:Wolfgang Amadeus Mozart
C:Wolfgang Amadeus Mozart
%%score 1 2
L:1/8
Q:1/4=96
M:6/8
K:F
V:1 treble 
V:2 bass 
V:1
 F | F2 A c2 f | c3- cAF | [E-B]2 [E-B][E-B][E-c][EB] | [FA]3 z2 F | F2 A c2 f | c3- cAF | %7
 [E-G]2 [E-G] [E-G][E-A][EG] | F3 z2 A | B2 ^F GAB | c2 A f z f | fed dc=B | c3 z2 F | F2 A c2 f | %14
 fdB G2 d | cAc{c} BAG | F2 .c dc.c | =Bc.c .c.d.e | .f z .c'{e'} d'c'.c' |{c'} =bc'.a c'_b.g | %20
 fca f z |] %21
V:2
 z | F,A,C F,A,C | F,A,C F,A,C | C,G,C C,G,C | F,A,C F,A,C | F,A,C F,A,C | F,A,C F,A,C | %7
 C,B,C C,B,C | F,A,C F,A,C | G,B,C E,G,C | F,A,C F,A,D | G,=B,D G,DF | [CE]DC B,A,G, | %13
 F,A,C F,A,C | B,,D,G, B,,D,G, | C,F,A, C,E,B, | F,A,C E,G,B, | F,A,C G,B,C | F,A,C E,G,B, | %19
 F,A,C C,E,B, | [F,-A,]2 [F,C] [F,A,] z |] %21

